Hatter-kde/actions/24/vcs-commit-cvs-cervisia.svg

<svg xmlns="http://www.w3.org/2000/svg" viewBox="0 0 24 24">
  <defs id="defs3051">
    <style type="text/css" id="current-color-scheme">
      .ColorScheme-Text {
        color:#363636;
      }
      </style>
  </defs><g transform="translate(1,1)">
  <path
     style="fill:currentColor;fill-opacity:1;stroke:none" 
     d="M 11 3 C 6.5817225 3 3 4.3431457 3 6 L 3 16 C 3 17.656854 6.5817225 19 11 19 C 11.973478 18.9995 12.934859 18.931777 13.837891 18.802734 L 13 17.914062 C 12.351409 17.970219 11.677712 17.999167 11 18 C 7.1340068 18 4 17.104569 4 16 L 4 12.451172 C 5.4081159 13.4 8.08901 14 11 14 C 12.165678 13.9982 13.316217 13.9 14.371094 13.714844 L 15.576172 12.509766 C 14.306465 12.824954 12.681993 13 11 13 C 7.1340068 13 4 12.104569 4 11 L 4 7.4511719 C 5.4081159 8.4065815 8.08901 8.9997592 11 9 C 13.914295 8.9985818 16.595979 8.4029845 18 7.4453125 L 18 11 C 17.9971 11.369079 17.636795 11.730731 16.958984 12.044922 L 17.414062 12.5 L 17.597656 12.683594 C 17.741658 12.606576 17.875921 12.527062 18 12.445312 L 18 13.085938 L 19 14.085938 L 19 6 C 18.999999 4.3431457 15.418277 3 11 3 z M 11 4 C 14.865993 4 18 4.8954305 18 6 C 18 7.1045695 14.865993 8 11 8 C 7.1340068 8 4 7.1045695 4 6 C 4 4.8954305 7.1340068 4 11 4 z M 16.5 13 L 16.292969 13.207031 L 13 16.5 L 13.707031 17.207031 L 16 14.914062 L 16 19.207031 L 17 19.207031 L 17 14.914062 L 19.292969 17.207031 L 20 16.5 L 16.707031 13.207031 L 16.5 13 z "
     class="ColorScheme-Text" />
</g></svg>

<?xml version="1.0" encoding="UTF-8"?>
<svg viewBox="0 0 24 24" xmlns="http://www.w3.org/2000/svg">
 <defs id="defs3051">
  <style id="current-color-scheme" type="text/css">.ColorScheme-Text {
        color:#363636;
      }</style>
 </defs>
 <g transform="translate(1,1)">
  <path class="ColorScheme-Text" d="m11 3c-4.4183 0-8 1.3431-8 3v10c0 1.6569 3.5817 3 8 3 0.97348-5e-4 1.9349-0.068223 2.8379-0.19727l-0.83789-0.88867c-0.64859 0.056157-1.3223 0.085105-2 0.085938-3.866 0-7-0.89543-7-2v-3.5488c1.4081 0.94883 4.089 1.5488 7 1.5488 1.1657-0.0018 2.3162-0.1 3.3711-0.28516l1.2051-1.2051c-1.2697 0.31519-2.8942 0.49023-4.5762 0.49023-3.866 0-7-0.89543-7-2v-3.5488c1.4081 0.95541 4.089 1.5486 7 1.5488 2.9143-0.0014182 5.596-0.59702 7-1.5547v3.5547c-0.0029 0.36908-0.3632 0.73073-1.041 1.0449l0.63867 0.63867c0.144-0.077018 0.27826-0.15653 0.40234-0.23828v0.64063l1 1v-8.0859c-1e-6 -1.6569-3.5817-3-8-3zm0 1c3.866 0 7 0.89543 7 2s-3.134 2-7 2c-3.866 0-7-0.89543-7-2s3.134-2 7-2zm5.5 9-3.5 3.5 0.70703 0.70703 2.293-2.293v4.293h1v-4.293l2.293 2.293 0.70703-0.70703-3.5-3.5z" fill="currentColor"/>
 </g>
</svg>
